icons/government.svg

<svg width="24" height="24" viewBox="0 0 24 24" fill="none" xmlns="http://www.w3.org/2000/svg">
<path fill-rule="evenodd" clip-rule="evenodd" d="M4 4C4 3.44772 4.44772 3 5 3H19C19.5523 3 20 3.44772 20 4V6H22C22.5523 6 23 6.44772 23 7C23 7.55228 22.5523 8 22 8V19C22.5523 19 23 19.4477 23 20C23 20.5523 22.5523 21 22 21H2C1.44772 21 1 20.5523 1 20C1 19.4477 1.44772 19 2 19V8C1.44772 8 1 7.55228 1 7C1 6.44772 1.44772 6 2 6H4V4ZM6 6V5H18V6H6ZM20 8H4V19H7V13C7 12.4477 7.44772 12 8 12C8.55228 12 9 12.4477 9 13V19H11V13C11 12.4477 11.4477 12 12 12C12.5523 12 13 12.4477 13 13V19H15V13C15 12.4477 15.4477 12 16 12C16.5523 12 17 12.4477 17 13V19H20V8Z" fill="black"/>
</svg>

<svg
  width="24"
  height="24"
  viewBox="0 0 24 24"
  xmlns="http://www.w3.org/2000/svg"
>
  <path
    fill-rule="evenodd"
    clip-rule="evenodd"
    d="M4 4a1 1 0 0 1 1-1h14a1 1 0 0 1 1 1v2h2a1 1 0 1 1 0 2v11a1 1 0 1 1 0 2H2a1 1 0 1 1 0-2V8a1 1 0 0 1 0-2h2V4zm2 2V5h12v1H6zm14 2H4v11h3v-6a1 1 0 1 1 2 0v6h2v-6a1 1 0 1 1 2 0v6h2v-6a1 1 0 1 1 2 0v6h3V8z"
  />
</svg>
